!!!OTL: Kriegers Abschied (3-8), S. 22f
!!!id: K1145
**kern
*clefG2
*k[]
*G:
{8g
8a
=1
4b
4b
8a
8g
=2
4a
4a}
=3
{8g
8a
=4
8b
8cc
4dd
8cc
8b
=5
2a}
=6
{8dd
8ee
=7
8dd
8cc
4a
8b
8a
=8
8b
8cc
4dd}
=9
{8dd
8ee
=10
8dd
8cc
4a
8b
8a
=11
8b
8cc
4dd}
=12
{8ee
8cc
=13
8b
8dd
4dd
8cc
8a
=14
2g}
==
*-
!!!minrhy: 8
!!!meters: 3/4 ]  ZZ[5
!!!cut: Kriegers Abschied (3-8), S. 22f
!!!reg: Luxemburg
!!!trd: KINTZELE, Guillaume: An der Ucht, Bd. 3 Luxemburg 1928
!!!rhy1: XX  X_X_XX  X_X_
!!!rhy2: XX  XXX_XX  X__
!!!key: K1145  08  G 3/4 ]  ZZ[5
!!!mod: SECHSTONSKALA DUR ?]  AMBITUS[6
!!!kad: 22551
!!!akz: 32_32_53_53_31_
!!!fot: 'a__aw_b__b__c__
!!!for: 'a__b__bw_bw_b__
!!!fok: '/__^a_V__V__\__
!! PHRAS[AUFTAKTIG]
!!!fkt: Kriegs-, Soldaten-, Abschiedslied
!!!bem: in der Quelle mit einer 2. Stimme versehen
!! KINTZELE
!! PR[22] 2K[6] 2G[6] 3K[9] 3G[9] 4A[3] 4Ü[0] 5A[0] 6K[0] 6G[3]
!! 7K[0] 7G[0] 8A[0] MEHR[0] SI[38] ABS[32] SR[13] SP[25]
!! ST[12] 2k[6] 2g[22] 3k[9] 3g[3] 4d[0] 4ü[0] 5d[0] 6k[0] 6g[0]
!! 7k[0] 7g[0] 8d[0] mehr[0] si[41] dm[-3] sr[28] sp[13]
!! 1F[29] 2F[35] 3F[6] 4F[0] LF[0] 2P[29] 3P[0] 4P[0] TRI[0] DF[4] AB[34]
!! TF[0] U3K[0] U3[0] U4[0] U4Ü[0] U5[0] U6K[0] U6[0] U7K[0] U7[0]
!! N1[12] N2K[0] N2[3] N3K[0] N3[15] N4[9] N4Ü[0] N5[24] N6K[0] N6[9]
!!!n7k: 0] N7[6] O1[12] O2K[0] O2[6] O3K[0] O3[3] HÖ[0
